seven-segment/plain-black/plain-black-6.svg

<!-- Created with Inkscape (http://www.inkscape.org/) --><svg xmlns:dc="http://purl.org/dc/elements/1.1/" xmlns:cc="http://creativecommons.org/ns#" xmlns:rdf="http://www.w3.org/1999/02/22-rdf-syntax-ns#" xmlns:svg="http://www.w3.org/2000/svg" xmlns="http://www.w3.org/2000/svg" xmlns:sodipodi="http://sodipodi.sourceforge.net/DTD/sodipodi-0.dtd" xmlns:inkscape="http://www.inkscape.org/namespaces/inkscape" width="100" height="160.00003" id="svg2" version="1.1" inkscape:version="0.47pre4 r22446" sodipodi:docname="glow-green.svg">
  <defs id="defs4">
    <inkscape:perspective sodipodi:type="inkscape:persp3d" inkscape:vp_x="0 : 526.18109 : 1" inkscape:vp_y="0 : 1000 : 0" inkscape:vp_z="744.09448 : 526.18109 : 1" inkscape:persp3d-origin="372.04724 : 350.78739 : 1" id="perspective10"/>
    <inkscape:perspective id="perspective3623" inkscape:persp3d-origin="0.5 : 0.33333333 : 1" inkscape:vp_z="1 : 0.5 : 1" inkscape:vp_y="0 : 1000 : 0" inkscape:vp_x="0 : 0.5 : 1" sodipodi:type="inkscape:persp3d"/>
  </defs>
  <sodipodi:namedview id="base" pagecolor="#ffffff" bordercolor="#666666" borderopacity="1.0" inkscape:pageopacity="0.0" inkscape:pageshadow="2" inkscape:zoom="2.2687496" inkscape:cx="38.114879" inkscape:cy="15.463647" inkscape:document-units="px" inkscape:current-layer="layer1" showgrid="true" gridtolerance="10" showguides="true" inkscape:guide-bbox="true" showborder="false" inkscape:window-width="821" inkscape:window-height="927" inkscape:window-x="349" inkscape:window-y="25" inkscape:window-maximized="0">
    <inkscape:grid type="xygrid" id="grid2816" empspacing="10" visible="true" enabled="false" snapvisiblegridlinesonly="true"/>
  </sodipodi:namedview>
  <metadata id="metadata7">
    <rdf:RDF>
      <cc:Work rdf:about="">
        <dc:format>image/svg+xml</dc:format>
        <dc:type rdf:resource="http://purl.org/dc/dcmitype/StillImage"/>
        <dc:title/>
      </cc:Work>
    </rdf:RDF>
  </metadata>
  <g inkscape:label="Layer 1" inkscape:groupmode="layer" id="layer1" transform="translate(0,-892.36216)">
    <g id="g3800" transform="translate(0,-9.7412108e-6)">
      <path id="path3730" d="M 7.03125,892.36217 C 3.1443893,892.36217 0,895.68494 0,899.83092 l 0,1 20,11.53125 56.8125,0 19.25,-19.21875 c -0.935139,-0.4866 -1.980282,-0.78125 -3.09375,-0.78125 l -85.9375,0 z" style="fill:#dcdcdc;fill-opacity:0.50196078;stroke:none"/>
      <path id="path3728" d="m 99.03125,896.04967 -19.03125,19 0,44.25 10.125,10.125 9.875,-9.875 0,-59.71875 c 0,-1.38713 -0.354746,-2.67203 -0.96875,-3.78125 z" style="fill:#dcdcdc;fill-opacity:0.50196078;stroke:none"/>
      <path id="path3726" d="M 0,905.61217 0,959.51842 10.03125,969.54967 20,959.58092 20,917.14342 0,905.61217 z" style="fill:#dcdcdc;fill-opacity:0.50196078;stroke:none"/>
      <path id="path3724" d="m 23.09375,962.36217 -10.125,10.09375 9.90625,9.90625 54.28125,0 10.03125,-10.03125 -10,-9.96875 -54.09375,0 z" style="fill:#dcdcdc;fill-opacity:0.50196078;stroke:none"/>
      <path id="path3718" d="m 90.125,975.26842 -10.125,10.125 0,43.96878 19.125,19.125 c 0.552893,-1.0674 0.875,-2.2827 0.875,-3.5938 l 0,-59.74999 -9.875,-9.875 z" style="fill:#dcdcdc;fill-opacity:0.50196078;stroke:none"/>
      <path id="path3716" d="M 10.03125,975.39342 0,985.42467 l 0,53.68753 20,-11.5625 0,-42.18753 -9.96875,-9.96875 z" style="fill:#dcdcdc;fill-opacity:0.50196078;stroke:none"/>
      <path id="rect2818" d="m 20,1032.3622 -20,11.5312 0,1 c 0,4.146 3.1443893,7.4688 7.03125,7.4688 l 85.9375,0 c 1.18935,0 2.299753,-0.3244 3.28125,-0.875 l -19.125,-19.125 -57.125,0 z" style="fill:#dcdcdc;fill-opacity:0.50196078;stroke:none"/>
    </g>
    <g id="g2978" transform="translate(0,-1.4741211e-5)">
      <path inkscape:label="#path3746" style="fill:#000000;fill-opacity:0.8627451;stroke:none" d="M 7.03125,892.36218 C 3.14439,892.36218 0,895.68495 0,899.83093 l 0,1 20,11.53125 56.8125,0 19.25,-19.21875 c -0.93514,-0.4866 -1.98028,-0.78125 -3.09375,-0.78125 l -85.9375,0 z" id="tc"/>
      <path inkscape:label="#path3750" style="fill:#000000;fill-opacity:0.8627451;stroke:none" d="M 0,905.61218 0,959.51843 10.03125,969.54968 20,959.58093 20,917.14343 0,905.61218 z" id="tl"/>
      <path inkscape:label="#path3752" style="fill:#000000;fill-opacity:0.8627451;stroke:none" d="m 23.09375,962.36218 -10.125,10.09375 9.90625,9.90625 54.28125,0 10.03125,-10.03125 -10,-9.96875 -54.09375,0 z" id="cc"/>
      <path inkscape:label="#path3754" style="fill:#000000;fill-opacity:0.8627451;stroke:none" d="m 90.125,975.26843 -10.125,10.125 0,43.96877 19.125,19.125 c 0.55289,-1.0674 0.875,-2.2827 0.875,-3.5938 l 0,-59.74997 -9.875,-9.875 z" id="br"/>
      <path inkscape:label="#path3756" style="fill:#000000;fill-opacity:0.8627451;stroke:none" d="M 10.03125,975.39343 0,985.42468 l 0,53.68752 20,-11.5625 0,-42.18752 -9.96875,-9.96875 z" id="bl"/>
      <path inkscape:label="#path3758" style="fill:#000000;fill-opacity:0.8627451;stroke:none" d="m 20,1032.3622 -20,11.5312 0,1 c 0,4.146 3.14439,7.4688 7.03125,7.4688 l 85.9375,0 c 1.18935,0 2.29975,-0.3244 3.28125,-0.875 l -19.125,-19.125 -57.125,0 z" id="bc"/>
    </g>
  </g>
</svg>

<!-- Created with Inkscape (http://www.inkscape.org/) --><svg xmlns:dc="http://purl.org/dc/elements/1.1/" xmlns:cc="http://creativecommons.org/ns#" xmlns:rdf="http://www.w3.org/1999/02/22-rdf-syntax-ns#" xmlns:svg="http://www.w3.org/2000/svg" xmlns="http://www.w3.org/2000/svg" xmlns:sodipodi="http://sodipodi.sourceforge.net/DTD/sodipodi-0.dtd" xmlns:inkscape="http://www.inkscape.org/namespaces/inkscape" width="100" height="160.00003" id="svg2" version="1.1" inkscape:version="0.46" sodipodi:docname="plain-black.svg" sodipodi:version="0.32" inkscape:output_extension="org.inkscape.output.svg.inkscape">
  <defs id="defs4">
    <inkscape:perspective sodipodi:type="inkscape:persp3d" inkscape:vp_x="0 : 526.18109 : 1" inkscape:vp_y="0 : 1000 : 0" inkscape:vp_z="744.09448 : 526.18109 : 1" inkscape:persp3d-origin="372.04724 : 350.78739 : 1" id="perspective10"/>
    <inkscape:perspective id="perspective3623" inkscape:persp3d-origin="0.5 : 0.33333333 : 1" inkscape:vp_z="1 : 0.5 : 1" inkscape:vp_y="0 : 1000 : 0" inkscape:vp_x="0 : 0.5 : 1" sodipodi:type="inkscape:persp3d"/>
  </defs>
  <sodipodi:namedview id="base" pagecolor="#ffffff" bordercolor="#666666" borderopacity="1.0" inkscape:pageopacity="0.0" inkscape:pageshadow="2" inkscape:zoom="2.2687496" inkscape:cx="173.87248" inkscape:cy="57.959954" inkscape:document-units="px" inkscape:current-layer="layer1" showgrid="true" gridtolerance="10" showguides="true" inkscape:guide-bbox="true" showborder="false" inkscape:window-width="1464" inkscape:window-height="927" inkscape:window-x="355" inkscape:window-y="46" inkscape:window-maximized="0">
    <inkscape:grid type="xygrid" id="grid2816" empspacing="10" visible="true" enabled="false" snapvisiblegridlinesonly="true"/>
  </sodipodi:namedview>
  <metadata id="metadata7">
    <rdf:RDF>
      <cc:Work rdf:about="">
        <dc:format>image/svg+xml</dc:format>
        <dc:type rdf:resource="http://purl.org/dc/dcmitype/StillImage"/>
        <dc:title/>
      </cc:Work>
    </rdf:RDF>
  </metadata>
  <g inkscape:label="Layer 1" inkscape:groupmode="layer" id="layer1" transform="translate(0,-892.36216)">
    <g id="g3174" transform="translate(0,-4.7412107e-6)">
      <path id="path3730" d="M 7.03125,892.36216 C 3.1443893,892.36216 0,895.68493 0,899.83091 L 0,900.83091 L 20,912.36216 L 76.8125,912.36216 L 96.0625,893.14341 C 95.127361,892.65681 94.082218,892.36216 92.96875,892.36216 L 7.03125,892.36216 L 7.03125,892.36216 z" style="opacity:0.1;fill:#c8c8c8;fill-opacity:1;stroke:none"/>
      <path id="path3728" d="M 99.03125,896.04966 L 80,915.04966 L 80,959.29966 L 90.125,969.42466 L 100,959.54966 L 100,899.83091 C 100,898.44378 99.645254,897.15888 99.03125,896.04966 z" style="opacity:0.1;fill:#c8c8c8;fill-opacity:1;stroke:none"/>
      <path id="path3726" d="M 0,905.61216 L 0,959.51841 L 10.03125,969.54966 L 20,959.58091 L 20,917.14341 L 0,905.61216 z" style="opacity:0.1;fill:#c8c8c8;fill-opacity:1;stroke:none"/>
      <path id="path3724" d="M 23.09375,962.36216 L 12.96875,972.45591 L 22.875,982.36216 L 77.15625,982.36216 L 87.1875,972.33091 L 77.1875,962.36216 L 23.09375,962.36216 L 23.09375,962.36216 z" style="opacity:0.1;fill:#c8c8c8;fill-opacity:1;stroke:none"/>
      <path id="path3718" d="M 90.125,975.26841 L 80,985.39341 L 80,1029.3622 L 99.125,1048.4872 C 99.677893,1047.4198 100,1046.2045 100,1044.8934 L 100,985.1434 L 90.125,975.2684 L 90.125,975.26841 z" style="opacity:0.1;fill:#c8c8c8;fill-opacity:1;stroke:none"/>
      <path id="path3716" d="M 10.03125,975.39341 L 0,985.42466 L 0,1039.1122 L 20,1027.5497 L 20,985.36216 L 10.03125,975.39341 L 10.03125,975.39341 z" style="opacity:0.1;fill:#c8c8c8;fill-opacity:1;stroke:none"/>
      <path id="rect2818" d="M 20,1032.3622 L 0,1043.8934 L 0,1044.8934 C 0,1049.0394 3.1443893,1052.3622 7.03125,1052.3622 L 92.96875,1052.3622 C 94.1581,1052.3622 95.268503,1052.0378 96.25,1051.4872 L 77.125,1032.3622 L 20,1032.3622 L 20,1032.3622 z" style="opacity:0.1;fill:#c8c8c8;fill-opacity:1;stroke:none"/>
    </g>
    <g id="g2978" transform="translate(0,-1.4741211e-5)">
      <path inkscape:label="#path3746" style="fill:#000000;fill-opacity:0.8627451;stroke:none" d="M 7.03125,892.36218 C 3.14439,892.36218 0,895.68495 0,899.83093 L 0,900.83093 L 20,912.36218 L 76.8125,912.36218 L 96.0625,893.14343 C 95.12736,892.65683 94.08222,892.36218 92.96875,892.36218 L 7.03125,892.36218 L 7.03125,892.36218 z" id="tc"/>
      <path inkscape:label="#path3750" style="fill:#000000;fill-opacity:0.8627451;stroke:none" d="M 0,905.61218 L 0,959.51843 L 10.03125,969.54968 L 20,959.58093 L 20,917.14343 L 0,905.61218 z" id="tl"/>
      <path inkscape:label="#path3752" style="fill:#000000;fill-opacity:0.8627451;stroke:none" d="M 23.09375,962.36218 L 12.96875,972.45593 L 22.875,982.36218 L 77.15625,982.36218 L 87.1875,972.33093 L 77.1875,962.36218 L 23.09375,962.36218 L 23.09375,962.36218 z" id="cc"/>
      <path inkscape:label="#path3754" style="fill:#000000;fill-opacity:0.8627451;stroke:none" d="M 90.125,975.26843 L 80,985.39343 L 80,1029.3622 L 99.125,1048.4872 C 99.67789,1047.4198 100,1046.2045 100,1044.8934 L 100,985.14343 L 90.125,975.26843 L 90.125,975.26843 z" id="br"/>
      <path inkscape:label="#path3756" style="fill:#000000;fill-opacity:0.8627451;stroke:none" d="M 10.03125,975.39343 L 0,985.42468 L 0,1039.1122 L 20,1027.5497 L 20,985.36218 L 10.03125,975.39343 L 10.03125,975.39343 z" id="bl"/>
      <path inkscape:label="#path3758" style="fill:#000000;fill-opacity:0.8627451;stroke:none" d="M 20,1032.3622 L 0,1043.8934 L 0,1044.8934 C 0,1049.0394 3.14439,1052.3622 7.03125,1052.3622 L 92.96875,1052.3622 C 94.1581,1052.3622 95.2685,1052.0378 96.25,1051.4872 L 77.125,1032.3622 L 20,1032.3622 L 20,1032.3622 z" id="bc"/>
    </g>
  </g>
</svg>
